X:3086
T:Der bor en Bager
C:anon., arr. Frank Nordberg
O:Denmark
R:Nusery song
Z:Transcribed by Frank Nordberg - http://www.musicaviva.com
F:http://abc.musicaviva.com/tunes/denmark/der-bor-en-bager-a/der-bor-en-bager-a-gtr1.abc
V:1 Program 1 24 up %Classical guitar
V:2 Program 1 24 merge down %Classical guitar
M:3/4
L:1/8
Q:1/4=108
K:A
V:1
EFE|"A"C2A,EFE|"E7"D2B,EEE|"E7"G2GEFG|"A"A2AEFG|
V:2
z z2|A,,6|E,,6|E,6|A,,6|
V:1
"A7"A2AABA|"D"F3AGF|"E"G2GEFG|"A"A3|]
V:2
A,,6|D,6|E,,6|A,,3|]
W:
W:Der bor en Bager p\aa N\orregade,
W:han bager Kringle og Julekage;
W:han bager store, han bager sm\aa,
W:han bager nogle med sukker p\aa.
W:
W:Og i hans vindu' er sukkerkager
W:og heste, grise og peberkager.
W:Mg har du penge, s\aa kan du f\aa,
W:men har du ingen, s\aa kan du g\aa.
W:
W:
W:  From Musica Viva - http://www.musicaviva.com
W:  the Internet center for free sheet music downloads.
